assets/img/braze_icons/left-indent-02.svg

<svg fill="none" height="24" viewBox="0 0 24 24" width="24" xmlns="http://www.w3.org/2000/svg"><g fill="#801ed7"><path d="m4.85209 2.139c-.18137-.13608-.36804-.27614-.53225-.3774-.15969-.09846-.46285-.26939-.85101-.26132-.45015.00935-.87228.22042-1.14985.57492-.23936.30569-.28451.65078-.30155.8376-.01752.19213-.01747.4255-.01743.65224v5.86982c-.00004.22675-.00009.46011.01743.65224.01704.1868.06219.5319.30155.8376.27757.3545.6997.5656 1.14985.5749.38816.0081.69132-.1628.85101-.2613.16422-.1013.35089-.2413.53226-.3774l3.91719-2.9379c.12454-.09334.26536-.19889.37827-.30045.12453-.112.30793-.29816.41711-.57889.13601-.34971.13601-.7377 0-1.08742-.10918-.28073-.29258-.46689-.41711-.57889-.11292-.10157-.25373-.2071-.37828-.30045z"/><path d="m12 3c-.5523 0-1 .44772-1 1s.4477 1 1 1h9c.5523 0 1-.44771 1-1 0-.55228-.4477-1-1-1z"/><path d="m12 8.25c-.5523 0-1 .44772-1 1 0 .55229.4477 1 1 1h9c.5523 0 1-.44771 1-1 0-.55228-.4477-1-1-1z"/><path d="m2 14.75c0-.5523.44772-1 1-1h18c.5523 0 1 .4477 1 1s-.4477 1-1 1h-18c-.55228 0-1-.4477-1-1z"/><path d="m3 19c-.55228 0-1 .4477-1 1s.44772 1 1 1h18c.5523 0 1-.4477 1-1s-.4477-1-1-1z"/></g></svg>

<svg width="24" height="24" viewBox="0 0 24 24" fill="none" xmlns="http://www.w3.org/2000/svg">
<path d="M4.85209 2.139C4.67072 2.00292 4.48405 1.86286 4.31984 1.7616C4.16015 1.66314 3.85699 1.49221 3.46883 1.50028C3.01868 1.50963 2.59655 1.7207 2.31898 2.0752C2.07962 2.38089 2.03447 2.72598 2.01743 2.9128C1.99991 3.10493 1.99996 3.3383 2 3.56504V9.43486C1.99996 9.66161 1.99991 9.89497 2.01743 10.0871C2.03447 10.2739 2.07962 10.619 2.31898 10.9247C2.59655 11.2792 3.01868 11.4903 3.46883 11.4996C3.85699 11.5077 4.16015 11.3368 4.31984 11.2383C4.48406 11.137 4.67073 10.997 4.8521 10.8609L8.76929 7.923C8.89383 7.82966 9.03465 7.72411 9.14756 7.62255C9.27209 7.51055 9.45549 7.32439 9.56467 7.04366C9.70068 6.69395 9.70068 6.30596 9.56467 5.95624C9.45549 5.67551 9.27209 5.48935 9.14756 5.37735C9.03464 5.27578 8.89383 5.17025 8.76928 5.0769L4.85209 2.139Z" fill="#801ED7"/>
<path d="M12 3C11.4477 3 11 3.44772 11 4C11 4.55228 11.4477 5 12 5L21 5C21.5523 5 22 4.55229 22 4C22 3.44772 21.5523 3 21 3L12 3Z" fill="#801ED7"/>
<path d="M12 8.25C11.4477 8.25 11 8.69772 11 9.25C11 9.80229 11.4477 10.25 12 10.25H21C21.5523 10.25 22 9.80229 22 9.25C22 8.69772 21.5523 8.25 21 8.25H12Z" fill="#801ED7"/>
<path d="M2 14.75C2 14.1977 2.44772 13.75 3 13.75H21C21.5523 13.75 22 14.1977 22 14.75C22 15.3023 21.5523 15.75 21 15.75H3C2.44772 15.75 2 15.3023 2 14.75Z" fill="#801ED7"/>
<path d="M3 19C2.44772 19 2 19.4477 2 20C2 20.5523 2.44772 21 3 21H21C21.5523 21 22 20.5523 22 20C22 19.4477 21.5523 19 21 19H3Z" fill="#801ED7"/>
</svg>
